symbols/web/videogame_asset/materialsymbolsoutlined/videogame_asset_wght500_40px.svg

<svg xmlns="http://www.w3.org/2000/svg" height="40" width="40"><path d="M6.042 30.375q-1.292 0-2.23-.937-.937-.938-.937-2.23V12.792q0-1.292.937-2.23.938-.937 2.23-.937h27.916q1.292 0 2.23.937.937.938.937 2.23v14.416q0 1.292-.937 2.23-.938.937-2.23.937Zm0-3.167h27.916V12.792H6.042v14.416Zm5.833-1.833h2.792v-4h4v-2.75h-4v-4h-2.792v4h-4v2.75h4Zm12.708-.5q.875 0 1.479-.604.605-.604.605-1.479 0-.834-.605-1.459-.604-.625-1.479-.625-.833 0-1.458.625t-.625 1.459q0 .875.625 1.479.625.604 1.458.604Zm4.167-5.625q.875 0 1.479-.625.604-.625.604-1.458 0-.834-.604-1.459-.604-.625-1.479-.625-.833 0-1.458.625t-.625 1.459q0 .833.625 1.458t1.458.625ZM6.042 27.208V12.792v14.416Z"/></svg>

<svg xmlns="http://www.w3.org/2000/svg" height="40" width="40"><path d="M6.042 30.375Q4.75 30.375 3.812 29.438Q2.875 28.5 2.875 27.208V12.792Q2.875 11.5 3.812 10.562Q4.75 9.625 6.042 9.625H33.958Q35.25 9.625 36.188 10.562Q37.125 11.5 37.125 12.792V27.208Q37.125 28.5 36.188 29.438Q35.25 30.375 33.958 30.375ZM6.042 27.208H33.958Q33.958 27.208 33.958 27.208Q33.958 27.208 33.958 27.208V12.792Q33.958 12.792 33.958 12.792Q33.958 12.792 33.958 12.792H6.042Q6.042 12.792 6.042 12.792Q6.042 12.792 6.042 12.792V27.208Q6.042 27.208 6.042 27.208Q6.042 27.208 6.042 27.208ZM11.875 25.375H14.667V21.375H18.667V18.625H14.667V14.625H11.875V18.625H7.875V21.375H11.875ZM24.583 24.875Q25.458 24.875 26.062 24.271Q26.667 23.667 26.667 22.792Q26.667 21.958 26.062 21.333Q25.458 20.708 24.583 20.708Q23.75 20.708 23.125 21.333Q22.5 21.958 22.5 22.792Q22.5 23.667 23.125 24.271Q23.75 24.875 24.583 24.875ZM28.75 19.25Q29.625 19.25 30.229 18.625Q30.833 18 30.833 17.167Q30.833 16.333 30.229 15.708Q29.625 15.083 28.75 15.083Q27.917 15.083 27.292 15.708Q26.667 16.333 26.667 17.167Q26.667 18 27.292 18.625Q27.917 19.25 28.75 19.25ZM6.042 27.208Q6.042 27.208 6.042 27.208Q6.042 27.208 6.042 27.208V12.792Q6.042 12.792 6.042 12.792Q6.042 12.792 6.042 12.792Q6.042 12.792 6.042 12.792Q6.042 12.792 6.042 12.792V27.208Q6.042 27.208 6.042 27.208Q6.042 27.208 6.042 27.208Z"/></svg>
